src/assets/outline/LikeShapes.svg

<svg width="24" height="24" viewBox="0 0 24 24"  xmlns="http://www.w3.org/2000/svg">
<path d="M12.0099 22.7498C11.3799 22.7498 10.7499 22.5397 10.2599 22.1197L8.67988 20.7598C8.51988 20.6198 8.11989 20.4797 7.90989 20.4797H6.17988C4.69988 20.4797 3.49989 19.2798 3.49989 17.7998V16.0897C3.49989 15.8797 3.35989 15.4897 3.21989 15.3297L1.86988 13.7397C1.04988 12.7697 1.04988 11.2398 1.86988 10.2698L3.21989 8.6798C3.35989 8.5198 3.49989 8.1298 3.49989 7.9198V6.20971C3.49989 4.72971 4.69988 3.52978 6.17988 3.52978H7.90989C8.11989 3.52978 8.51988 3.37975 8.67988 3.24975L10.2599 1.88977C11.2399 1.04977 12.7699 1.04977 13.7499 1.88977L15.3299 3.24975C15.4899 3.38975 15.8899 3.52978 16.0999 3.52978H17.7999C19.2799 3.52978 20.4799 4.72971 20.4799 6.20971V7.90979C20.4799 8.11979 20.6299 8.5198 20.7699 8.6798L22.1199 10.2598C22.9599 11.2398 22.9599 12.7698 22.1199 13.7498L20.7699 15.3297C20.6299 15.4897 20.4899 15.8897 20.4899 16.0997V17.7998C20.4899 19.2798 19.2899 20.4797 17.8099 20.4797H16.1099C15.8999 20.4797 15.4999 20.6298 15.3399 20.7598L13.7599 22.1197C13.2599 22.5397 12.6299 22.7498 12.0099 22.7498ZM6.17988 5.01977C5.52988 5.01977 4.99989 5.5497 4.99989 6.1997V7.90979C4.99989 8.47979 4.72988 9.20977 4.36988 9.63977L3.01988 11.2297C2.66988 11.6397 2.66988 12.3498 3.01988 12.7598L4.36988 14.3497C4.73988 14.7897 5.0099 15.5197 5.0099 16.0797V17.7898C5.0099 18.4398 5.53989 18.9697 6.18989 18.9697H7.9199C8.4999 18.9697 9.2299 19.2397 9.6699 19.6197L11.2499 20.9797C11.6599 21.3297 12.3799 21.3297 12.7899 20.9797L14.3699 19.6197C14.8099 19.2497 15.5399 18.9697 16.1199 18.9697H17.8199C18.4699 18.9697 18.9999 18.4398 18.9999 17.7898V16.0897C18.9999 15.5097 19.2699 14.7797 19.6499 14.3397L20.9999 12.7598C21.3499 12.3498 21.3499 11.6297 20.9999 11.2197L19.6499 9.63977C19.2799 9.19977 18.9999 8.46977 18.9999 7.88977V6.18969C18.9999 5.53969 18.4699 5.00976 17.8199 5.00976H16.1199C15.5499 5.00976 14.8099 4.73974 14.3699 4.35974L12.7899 2.99975C12.3799 2.64975 11.6599 2.64975 11.2499 2.99975L9.6699 4.35974C9.2299 4.72974 8.4999 5.00976 7.9199 5.00976H6.17988V5.01977Z" />
<path d="M13.9998 16.9698H12.2198C11.7998 16.9698 11.1697 16.8398 10.7997 16.4698L9.41977 15.4099L10.3398 14.2198L11.7898 15.3398C11.8898 15.4098 12.0698 15.4598 12.2198 15.4598H13.9998C14.2398 15.4598 14.5297 15.2499 14.5797 15.0399L15.7198 11.5698C15.7498 11.4798 15.7497 11.4199 15.7397 11.3999C15.7197 11.3699 15.6497 11.3398 15.5497 11.3398H13.6797C13.3197 11.3398 12.9898 11.1899 12.7498 10.9199C12.5198 10.6499 12.4097 10.2899 12.4597 9.9199L12.6998 8.40989C12.7198 8.32989 12.6598 8.22982 12.5998 8.20982C12.5398 8.19982 12.4498 8.21986 12.4198 8.24986L10.5098 11.0898L9.25977 10.2499L11.1797 7.39988C11.5797 6.79988 12.4198 6.5399 13.0998 6.7899C13.8598 7.0399 14.3497 7.89991 14.1797 8.67991L13.9998 9.8198H15.5497C16.1397 9.8198 16.6598 10.0699 16.9698 10.5099C17.2698 10.9399 17.3397 11.4999 17.1497 12.0299L16.0298 15.4299C15.8198 16.2899 14.9298 16.9698 13.9998 16.9698Z" />
<path d="M8.90024 16.4596H8.43024C6.96024 16.4596 6.74023 15.4296 6.74023 14.8196V10.2396C6.74023 9.62962 6.96024 8.59961 8.43024 8.59961H8.90024C10.3702 8.59961 10.5902 9.62962 10.5902 10.2396V14.8196C10.5902 15.4296 10.3702 16.4596 8.90024 16.4596ZM8.26025 14.9496C8.30025 14.9596 8.36025 14.9596 8.44025 14.9596H8.91025C8.99025 14.9596 9.05024 14.9596 9.09024 14.9496C9.09024 14.9196 9.10025 14.8796 9.10025 14.8196V10.2396C9.10025 10.1796 9.10024 10.1396 9.09024 10.1096C9.05024 10.0996 8.99025 10.0996 8.91025 10.0996H8.44025C8.36025 10.0996 8.30025 10.0996 8.26025 10.1096C8.26025 10.1396 8.25024 10.1796 8.25024 10.2396V14.8196C8.25024 14.8796 8.25025 14.9196 8.26025 14.9496Z" />
</svg>

<?xml version="1.0" encoding="UTF-8"?>
<svg width="24" height="24" viewBox="0 0 24 24" xmlns="http://www.w3.org/2000/svg">
 <path d="m12.01 22.75c-0.63 0-1.26-0.2101-1.75-0.6301l-1.58-1.3599c-0.16-0.14-0.55999-0.2801-0.76999-0.2801h-1.73c-1.48 0-2.68-1.1999-2.68-2.6799v-1.7101c0-0.21-0.14-0.6-0.28-0.76l-1.35-1.59c-0.82-0.97-0.82-2.4999 0-3.4699l1.35-1.59c0.14-0.16 0.28-0.55 0.28-0.76v-1.7101c0-1.48 1.2-2.6799 2.68-2.6799h1.73c0.21 0 0.60999-0.15003 0.76999-0.28003l1.58-1.36c0.98-0.84 2.51-0.84 3.49 0l1.58 1.36c0.16 0.14 0.56 0.28003 0.77 0.28003h1.7c1.48 0 2.68 1.1999 2.68 2.6799v1.7001c0 0.21 0.15 0.61001 0.29 0.77001l1.35 1.58c0.84 0.98 0.84 2.51 0 3.49l-1.35 1.5799c-0.14 0.16-0.28 0.56-0.28 0.77v1.7001c0 1.48-1.2 2.6799-2.68 2.6799h-1.7c-0.21 0-0.61 0.1501-0.77 0.2801l-1.58 1.3599c-0.5 0.42-1.13 0.6301-1.75 0.6301zm-5.83-17.73c-0.65 0-1.18 0.52993-1.18 1.1799v1.7101c0 0.57-0.27001 1.3-0.63001 1.73l-1.35 1.5899c-0.35 0.41-0.35 1.1201 0 1.5301l1.35 1.5899c0.37 0.44 0.64002 1.17 0.64002 1.73v1.7101c0 0.65 0.52999 1.1799 1.18 1.1799h1.73c0.58 0 1.31 0.27 1.75 0.65l1.58 1.36c0.41 0.35 1.13 0.35 1.54 0l1.58-1.36c0.44-0.37 1.17-0.65 1.75-0.65h1.7c0.65 0 1.18-0.5299 1.18-1.1799v-1.7001c0-0.58 0.27-1.31 0.65-1.75l1.35-1.5799c0.35-0.41 0.35-1.1301 0-1.5401l-1.35-1.5799c-0.37-0.44-0.65-1.17-0.65-1.75v-1.7001c0-0.65-0.53-1.1799-1.18-1.1799h-1.7c-0.57 0-1.31-0.27002-1.75-0.65002l-1.58-1.36c-0.41-0.35-1.13-0.35-1.54 0l-1.58 1.36c-0.44 0.37-1.17 0.65002-1.75 0.65002h-1.74v0.01001z"/>
 <path d="m14 16.97h-1.78c-0.42 0-1.0501-0.13-1.4201-0.5l-1.3799-1.0599 0.92003-1.1901 1.45 1.12c0.1 0.07 0.28 0.12 0.43 0.12h1.78c0.24 0 0.5299-0.2099 0.5799-0.4199l1.1401-3.4701c0.03-0.09 0.0299-0.1499 0.0199-0.1699-0.02-0.03-0.09-0.0601-0.19-0.0601h-1.87c-0.36 0-0.6899-0.1499-0.9299-0.4199-0.23-0.27-0.3401-0.63-0.2901-1l0.2401-1.51c0.02-0.08-0.04-0.18007-0.1-0.20007-0.06-0.01-0.15 0.01004-0.18 0.04004l-1.91 2.8399-1.25-0.8399 1.9199-2.85c0.4-0.6 1.2401-0.85998 1.9201-0.60998 0.76 0.25 1.2499 1.11 1.0799 1.89l-0.1799 1.1399h1.5499c0.59 0 1.1101 0.2501 1.4201 0.6901 0.3 0.43 0.3699 0.99 0.1799 1.52l-1.1199 3.4c-0.21 0.86-1.1 1.5399-2.03 1.5399z"/>
 <path d="m8.9002 16.46h-0.47c-1.47 0-1.69-1.03-1.69-1.64v-4.58c0-0.60998 0.22001-1.64 1.69-1.64h0.47c1.47 0 1.69 1.03 1.69 1.64v4.58c0 0.61-0.22 1.64-1.69 1.64zm-0.63999-1.51c0.04 0.01 0.1 0.01 0.18 0.01h0.47c0.08 0 0.13999 0 0.17999-0.01 0-0.03 0.01001-0.07 0.01001-0.13v-4.58c0-0.06-1e-5 -0.1-0.01001-0.13-0.04-0.01-0.09999-0.01-0.17999-0.01h-0.47c-0.08 0-0.14 0-0.18 0.01 0 0.03-0.01001 0.07-0.01001 0.13v4.58c0 0.06 1e-5 0.1 0.01001 0.13z"/>
</svg>
